X:1
T:Ardo
T:Ardo
T:Bartolomeo Spighi da Prato
C:Bartolomeo Spighi da Prato
%%score 1 { ( 2 4 ) | ( 3 5 ) }
L:1/8
Q:1/4=120
M:4/4
K:C
V:1 bass nm="Bass" snm="B"
V:2 treble nm="MusicXML Part"
V:4 treble 
V:3 bass 
V:5 bass 
V:1
"^Source: Musical Concerto d'arie e canzonette---Fiorenza---Z.Pignoni---1641.\nEditor: André Vierendeels (09/12/08)\nContinuo: André Vierendeels""^PRIMA PARTE" z4 A,4- | %1
w: Ar-|
 A,/B,/C E,2 z A,F,E, | ^F,4 z2 D2- | D2 CB, D,E,/F,/ G,/A,/B,/C/ | %4
w: * * * do, mal' ar- dor|mio gra-|* v'e pro- fon- * * * * * *|
 C/A,/F,/G,/ A,/F,/D,/E,/ F,/D,/C,/B,,/ A,,/B,,/C,/D,/ | E,/C,/A,,/B,,/ C,/A,,/G,,/F,,/ E,,4 | %6
w: ||
 A,,4 z2 A,2 | B,3 A, G,3 G, | F,2 A,4 B,A, | G,4 F,4 | z2 E,E, D,4- | D,2 C,B,, A,,2 A,2- | %12
w: do cui|non me re- ve-|lar don- na con-|ces- so,|qua- si no-|* vo Te- feo chiu-|
 A,2 G,D, A,4 | D,2 D4 A,F, | E,4- E,E,E,E, | A,4- A,/F,/D,/E,/ F,/G,/A,/B,/ | %16
w: * so'e op- pres-|so sott' il gran|sas _ so del si-|len- * * * * * * * *|
 C/A,/G,/F,/ E,/D,/C,/B,,/ A,,/B,,/C,/B,,/ C,/A,,/G,,/F,,/ | E,,2 D,,2 E,,4 | A,,8 || %19
w: |* zio'as con-|do.|
"^SECONDA PARTE" z8 | E,6 E,^C, | D,6 B,,/A,,/B,,/G,,/ | A,,4 A,>G, F,>E, | %23
w: |Pur del mio|foc' on _ _ _|d'io ta- * * *|
 D,>E, F,>G, A,>B, C/B,/C/A,/ | B,A, A,4 ^G,2- | A,4 z2 E,E, | F,2 E,D, E,F, G,/F,/G,/E,/ | %27
w: |cit'- a- bon- do|_ qual hor|fred- d'e tre- man- * * * * *|
 F,2 G,2 A,3 G, | G,4 F,4 | z4 z2 DB, | A,2 F,/E,/ F,/G,/ E,2 z F, | G,<F, E,<D, E,4 | %32
w: * t'a voi ma-|pres- so|Son fa-|vil- l'i _ sos- * pir el|foc _ 'ei _ pres-|
 D,2 A,4 E,E, | G,A,/B,/ A,4- A,^G, | A,3 E, D,2 C,B,, | %35
w: so seu'op- pre- ne|mu- * * * * ti|sguar- d'A- mor _ _|
 A,,>E, F,/G,/A,/E,/ C,/D,/E,/C,/ A,,/B,,/C,/D,/ | E,/"^#"F,/^G,/A,/ B,/A,/D/C/ B,4 | A,8 || %38
w: fa- * * * * * * * * * * * * *|* * * * * * * * con-|do.|
"^TERZA PARTE" z8 | z4 A,4- | A,2 A,A, _B, A,2 ^G,- | A,4 z2 A,2 | D4- DCB,A, | B,8 | A,8 | %45
w: |E|_ se si strug- * ge|_ in|cie- * ca'ar- su- ra'il|co-|re|
 z2 A,2 A,2 G,2 | _B,3 A, G,>G, G,>F, | F,3 E,- F,4 | z2 C4 B,2 | A,2 G,F, E,<D, E,<F, | %50
w: l'oc- cul- ta|fa- ce ch'io nel Alm' a|ce- sa _|Chia- ro|mo- stra negl'- oc- * ch'il _|
 G,A,_B,D, E,4 | D,2 D4 C2 | B,2 A,A, B,4 | E,4 ^F,>G, F,>G, | %54
w: suo _ _ splen- do-|re Chia- ro|mo- stra negl'oc- *|ch'il suo _ _ _|
 A,/G,/A,/F,/ E,/D,/C,/B,,/ A,,2 C/B,/C/D/ | ^G,A,/B,/ A,4- A,G,- | A,8 ||"^QUARTA PARTE" z8 | %58
w: _ _ _ _ _ _ _ _ _ splen- * * *|do- * * * * re.|_||
 ^C,6 C,2 | D,6 E,F, | E,4 z2 A,2 | _B,3 A, A,>B, C/B,/C/D/ | G,2 A,4 ^G,2- | A,8 | %64
w: Co- si|tut- to tal|hor qui|den- tr'ap- pre- * * * * *||sa|
 z A,A,A, G,3 G, | F,2 D,2 E,E, F,2- | F,2 E,2 F,4 | z2 E,E, D,E,/F,/ G,/A,/B,/C/ | D2 CB, A,4- | %69
w: ne- mi- ca fiam- ma|sia l'in- ter' ar- do-|* * re|for per l'al- * * * * * *|te fi- * nestr'|
 A,G,G,G, A,4 | D,2 F,F, E,F,/G,/ A,/B,/C/D/ | E2 DC B,2 G,2 | A,4 D,>E, F,>G, | %73
w: _ al- trui pa- le-|sa fuor per l'al- * * * * * *|te fi- nes- tr'al- trui|pa- * * * *|
 A,G,/F,/ E,/D,/C,/B,,/ A,,>B,, C,/B,,/C,/A,,/ | E,D,/C,/"^#" B,,/A,,/G,,/F,,/ E,,4 | A,,8 |] %76
w: |le- * * * * * * *|sa.|
V:2
 [E-Ac-]8 | [EAc]8 | [^FA]8 | [EAc]4 [FA]4- | [FA]8 | [GB]8 | [Ec]4 [EA]4 | [GB]2 [FA]2 [Gc]4 | %8
 [FA]4 [EA]2 [D_B]2 | [FG]2 [EG]2 [CFA]4 | [EG]4 [D-F]4 | [DA]4 [EA]4 | [DG]4 [Ec]4 | [FA]4 [EA]4 | %14
 [EGB]8 | [EA]4 [FA]4 | [EAc]8 | B/e/d/c/ B/A/^G/^F/ G A2 G | [^CEA]8 || [E-Ac-]8 | [EAc]8 | %21
 [DFA]8 | [EA]4 [D-FA-]4 | [DFA]4 [FAc]4 | [EB]2 [EA]4 [E^G]2"^b" | [EAc]8 | [FA]4 [EGB]4 | %27
 [FA]2 [DG]2 [EG]2 [D_B]2 | [EG]4 [FAc]4 | [EGc]4 [DA]4- | [DA]4 [Ec]4 | [DG]4 D2 ^C2 | %32
 [DFA]4 [EA]4 | [E^GB]4 [EA]4 | [EA]4 [FA]4 | [EAc]8 | ^G A2 G A2 G2 | [EA^c]8 || [E-Ac-]8 | %39
 [EAc]8 | [DFA]8 | [EA]4 [D-FA-]4 | [DFA]4 [FAc]4 | [EG]2 [EA]4 [EG]2 | [EAc]8 | [FA]4 [EB]4 | %46
 [D_B]4 [EG]2 [GB]2 | [EG]4 [FAc]4 | [EGc]4 [FA]4- | [FA]4 [Ec]4 | [D-G]4 [DA]2 [^CE]2 | %51
 [DFA]4 [EA]4 | [E^GB]8 | [EA]4 [^FA]4 | [EAc]8 | [E^GB]2 [EAc]4 [EGB]2 | [EA^c]8 || [EA]8 | %58
 [EA]8 | [FA]8 | [EGc]4 [FA]4 | [G_B]4 [Fc]4 | [EB]2 [EA]4 [^GB]2 | [EA^c]8 | [FA]4 [EB]4 | %65
 [FA]2 [DG]2 [EG]2 [F_B]2 | [EG]4 [CFA]4 | [EGc]4 [FA]4- | [FA]4 [Ec]4 | [DG]4 [Ec]4 | %70
 [FA]4 [Ec]4 | %71
 [EG]2 [EA]4 [^GB]2"^Notes: 1) Original keys: Fa 4rth, Fa 4rth\n            2) Editorial accidentals above the staff\n            3) m1 Bass: rest not in the original print\n            4) m22 Bass: \"la\" quarter in the original print\n            5) m37 Bass: sharp on \"la\" in the original print" | %72
 [EA]4 [FA]4 | [EAc]8 | G2 A4 [^GB]2 | [EA^c]8 |] %76
V:3
 A,,8 | A,,8 | D,8 | A,,4 D,4 | D,4"^b" F,4 | E,8 | A,,8 |"^6" D,2 F,2 E,4 | D,4 C,2 _B,,2 | %9
 C,4 F,,4 | C,4 D,4 | D,4 A,,2 A,2 | _B,4 A,2 A,,2 | D,4 A,,4 | E,8 | ^C,4 D,4 | A,,8 | E,8 | %18
 A,,8 || A,,8 | A,,8 | D,8 | A,,4 D,4 | D,4 F,4 | E,8 | A,,8 | D,2 F,2 E,4 | D,4 C,2 _B,,2 | %28
 C,4 F,,4 | C,4 D,4 | D,4 A,,2 A,2 | _B,4 A,2 A,,2 | D,4 A,,4 | E,8 | ^C,4 D,4 | A,,8 | %36
"^3 4 3" [E,B,]8 | A,,8 || A,,8 | A,,8 | D,4 D,4 | A,,4 D,4 | D,4 F,4 |"^3 4 3" E,8 |"^b" A,,8 | %45
 D,2 F,2 E,4 | D,4 C,2 _B,,2 | C,4 F,4 | C,4 D,4 | D,4 A,4 | _B,4 A,4 | D,4 A,,4 | E,8 | ^C,4 D,4 | %54
 A,,8 | E,8 | A,,8 || A,,8 | A,,8 | D,8 | A,,4 D,4 |"^6   5" D,4 F,4 |"^#3   4   3#" E,8 | A,,8 | %64
 D,2 F,2 E,4 | D,4 C,2 _B,,2 | C,4 F,,4 | C,4 D,4 | D,4 A,4 | _B,4 A,4 |"^#" D,4 A,,4 | E,8 | %72
 ^C,4 D,4 | A,,8 | E,8 | A,,8 |] %76
V:4
 x8 | x8 | x8 | x8 | x8 | x8 | x8 | x8 | x8 | x8 | x8 | x8 | x8 | x8 | x8 | x8 | x8 | E8 | x8 || %19
 x8 | x8 | x8 | x8 | x8 | x8 | x8 | x8 | x8 | x8 | x8 | x8 | x4 A4 | x8 | x8 | x8 | x8 | E8 | x8 || %38
 x8 | x8 | x8 | x8 | x8 | x8 | x8 | x8 | x8 | x8 | x8 | x8 | x8 | x8 | x8 | x8 | x8 | x8 | x8 || %57
 c2 B/A/B/c/ d/c/B/A/ ^G2 | x8 | x8 | x8 | x8 | x8 | x8 | x8 | x8 | x8 | x8 | x8 | x8 | x8 | x8 | %72
 x8 | x8 | E8 | x8 |] %76
V:5
 x8 | x8 | x8 | x8 | x8 | x8 | x8 | x8 | x8 | x8 | x8 | x8 | x8 | x8 | x8 | x8 | x8 | B,8 | A,8 || %19
 x8 | x8 | x8 | x8 | x8 | x8 | x8 | x8 | x8 | x8 | x8 | x8 | x8 | x8 | x8 | x8 | x8 | x8 | x8 || %38
 x8 | x8 | x8 | x8 | x8 | x8 | x8 | x8 | x8 | x8 | x8 | x8 | x8 | x8 | x8 | x8 | x8 | x8 | x8 || %57
 x8 | x8 | x8 | x8 | x8 | x8 | x8 | x8 | x8 | x8 | x8 | x8 | x8 | x8 | x8 | x8 | x8 | x8 | x8 |] %76

